icons-dark/places/32/folder-locked.svg

<svg version="1.1" viewBox="0 0 32 32" xmlns="http://www.w3.org/2000/svg" xmlns:xlink="http://www.w3.org/1999/xlink">
    <defs>
        <linearGradient id="a" x2="0" y1="29" y2="8" gradientUnits="userSpaceOnUse">
            <stop stop-color="#3daee9" offset="0"/>
            <stop stop-color="#6cc1ef" offset="1"/>
        </linearGradient>
    </defs>
    <g transform="translate(-384.57143,-515.798)">
        <g transform="translate(-6e-6)">
            <path d="m386.57144 518.798v8h28v-6h-14.00001l-2-2z" fill="#147eb8" fill-rule="evenodd"/>
            <path d="m397.57143 523.798-1.99999 1h-9v1h9.99999z" fill-opacity=".235294" fill-rule="evenodd"/>
            <path transform="translate(384.57143,515.798)" d="m13 8-2 2h-10v19h30v-21z" fill="url(#a)"/>
            <g fill-opacity=".235294">
                <path d="m397.57143 523.798-2 2h-10v1h11z" fill="#fff" fill-rule="evenodd"/>
                <path d="m398.57143 518.798 1 3h15.00001v-1h-14.00001z" fill="#fff" fill-rule="evenodd"/>
                <rect x="385.57144" y="543.79797" width="30" height="1"/>
            </g>
        </g>
        <path transform="translate(384.57143,515.798)" d="m16 13c-1.662003 0-3 1.337997-3 3v2h-1v5h8v-5h-1v-2c0-1.662003-1.337997-3-3-3zm0 1c1.108 0 2 0.892 2 2v2h-4v-2c0-1.108 0.892-2 2-2z" fill="#1272a5"/>
    </g>
</svg>

<?xml version="1.0" encoding="UTF-8" standalone="no"?>

<!-- Created with Inkscape (http://www.inkscape.org/) -->
<svg width="32" version="1.1" xmlns="http://www.w3.org/2000/svg" height="32" viewBox="0 0 32 32" xmlns:xlink="http://www.w3.org/1999/xlink" xmlns:inkscape="http://www.inkscape.org/namespaces/inkscape">
 <defs id="defs5455">
  <linearGradient inkscape:collect="always" id="linearGradient4172-5">
   <stop style="stop-color:#3daee9" id="stop4174-6"/>
   <stop offset="1" style="stop-color:#6cc1ef" id="stop4176-6"/>
  </linearGradient>
  <linearGradient inkscape:collect="always" id="linearGradient4342" xlink:href="#linearGradient4172-5" y1="29" y2="8" gradientUnits="userSpaceOnUse" x2="0"/>
 </defs>
 <metadata id="metadata5458"/>
 <g inkscape:label="Capa 1" inkscape:groupmode="layer" id="layer1" transform="matrix(1 0 0 1 -384.57143 -515.798)">
  <g inkscape:label="Capa 1" id="layer1-1" transform="matrix(1 0 0 1 -0.000006 0)">
   <path inkscape:connector-curvature="0" style="fill:#147eb8;fill-rule:evenodd" id="path4308" d="m 386.57144,518.798 0,7 0,1 28,0 0,-6 -14.00001,0 -2,-2 z"/>
   <path inkscape:connector-curvature="0" style="fill-opacity:0.235294;fill-rule:evenodd" id="path4306" d="m 397.57143,523.798 -1.99999,1 -9,0 0,1 6.99999,0 3,0 z"/>
   <path inkscape:connector-curvature="0" style="fill:url(#linearGradient4342)" id="rect4294" d="m 13,8 -2,2 -9,0 -1,0 0,19 11,0 1,0 18,0 0,-21 -18,0 z" transform="matrix(1 0 0 1 384.57143 515.798)"/>
   <path inkscape:connector-curvature="0" style="fill:#ffffff;fill-opacity:0.235294;fill-rule:evenodd" id="path4304" d="m 397.57143,523.798 -2,2 -10,0 0,1 11,0 z"/>
   <path inkscape:connector-curvature="0" style="fill:#ffffff;fill-opacity:0.235294;fill-rule:evenodd" id="path4310" d="m 398.57143,518.798 1,3 15.00001,0 0,-1 -14.00001,0 z"/>
   <rect width="30" x="385.57144" y="543.79797" height="1" style="fill-opacity:0.235294" id="rect4292"/>
  </g>
  <path style="fill:#1272a5" id="rect4184" d="M 16 13 C 14.337997 13 13 14.337997 13 16 L 13 18 L 12 18 L 12 23 L 20 23 L 20 18 L 19 18 L 19 16 C 19 14.337997 17.662003 13 16 13 z M 16 14 C 17.108 14 18 14.892 18 16 L 18 18 L 14 18 L 14 16 C 14 14.892 14.892 14 16 14 z M 13 19 L 14 19 L 18 19 L 19 19 L 19 22 L 13 22 L 13 19 z " transform="matrix(1 0 0 1 384.57143 515.798)"/>
 </g>
</svg>
